src/images/logos/WHA_logo.svg

<?xml version="1.0" encoding="utf-8"?><svg width="200" height="44" viewBox="0 0 200 44" fill="none" xmlns="http://www.w3.org/2000/svg">
<g clip-path="url(#clip0)">
<path d="M0 0L11.1871 43.9528H25.3692L30.3496 18.4105L35.5496 43.9528H60.9966V26.743H74.7504V43.9528L90.7789 0H74.756V14.7306H61.0022V0H46.8063L42.0511 26.743L36.3116 0H24.2819L19.0818 26.743L13.9929 0H0Z" fill="#006898"/>
<path d="M93.493 29.0165L97.9422 13.5382L102.6 29.0165H93.493Z" fill="#006898"/>
<path d="M89.141 43.9528L91.0876 38.1717H105.27L107.002 43.9528H89.141Z" fill="#006898"/>
<path d="M121.148 43.9528L105.512 0H121.148V43.9528Z" fill="#006898"/>
<path d="M105.512 0H121.148V43.9555L105.512 0Z" fill="#E7A31D"/>
<path d="M143.786 12.1486H139.918L138.759 6.86779C138.703 6.64544 138.617 6.20908 138.497 5.55037C138.378 4.89166 138.291 4.34413 138.236 3.905C138.191 4.26353 138.119 4.70823 138.022 5.24187C137.924 5.7755 137.824 6.26189 137.727 6.70936C137.63 7.15684 137.229 8.9662 136.523 12.1402H132.652L129.654 0.0389099H132.811L134.123 6.11458C134.422 7.45423 134.625 8.52243 134.735 9.31918C134.807 8.7633 134.936 7.99806 135.121 7.02343C135.307 6.04881 135.479 5.24928 135.639 4.62485L136.706 0.0472476H139.737L140.772 4.62485C140.95 5.3586 141.128 6.2063 141.311 7.16517C141.495 8.12405 141.615 8.83279 141.676 9.31918C141.748 8.70401 141.945 7.64137 142.265 6.13125L143.606 0.0472476H146.762L143.786 12.1486Z" fill="#006898"/>
<path d="M155.535 12.1486H148.333V0.0472412H155.535V2.67095H151.603V4.57481H155.218V7.19852H151.603V9.48315H155.535V12.1486Z" fill="#006898"/>
<path d="M157.643 0.0472412H161.867C163.511 0.0472412 164.733 0.2909 165.532 0.778214C166.331 1.26553 166.73 2.02614 166.728 3.06006C166.746 3.67998 166.564 4.2893 166.208 4.79716C165.875 5.26728 165.38 5.59786 164.817 5.72547V5.80884C165.461 5.93878 166.038 6.28985 166.45 6.80108C166.807 7.3329 166.984 7.96503 166.956 8.60488C166.975 9.10569 166.873 9.60373 166.657 10.056C166.441 10.5083 166.118 10.9012 165.716 11.2008C164.891 11.8345 163.766 12.1504 162.343 12.1486H157.643V0.0472412ZM160.913 4.69154H161.9C162.283 4.71934 162.665 4.62178 162.988 4.41361C163.118 4.31316 163.221 4.18227 163.288 4.03249C163.356 3.88271 163.385 3.71865 163.374 3.55479C163.374 2.87292 162.861 2.53291 161.834 2.53476H160.913V4.69154ZM160.913 7.08179V9.6249H162.064C163.088 9.6249 163.597 9.19411 163.597 8.3325C163.607 8.15691 163.575 7.98147 163.504 7.82058C163.433 7.65969 163.324 7.51793 163.188 7.40697C162.839 7.16783 162.42 7.05326 161.998 7.08179H160.913Z" fill="#006898"/>
<path d="M141.075 27.9909H137.796V23.0576H133.995V27.9909H130.708V15.8896H133.995V20.3755H137.796V15.8896H141.075V27.9909Z" fill="#006898"/>
<path d="M150.891 27.9909H143.703V15.8896H150.891V18.5133H146.973V20.4172H150.588V23.0409H146.973V25.3255H150.891V27.9909Z" fill="#006898"/>
<path d="M153.013 27.9909V15.8896H156.283V25.3394H160.947V27.9798L153.013 27.9909Z" fill="#006898"/>
<path d="M171.664 19.739C171.664 21.0898 171.265 22.1339 170.468 22.8713C169.671 23.6088 168.537 23.9794 167.067 23.9831H166.149V27.9965H162.885V15.8896H167.075C168.605 15.8896 169.753 16.2231 170.521 16.8902C171.288 17.5572 171.669 18.5068 171.664 19.739ZM166.149 21.3121H166.745C167.174 21.3342 167.595 21.1853 167.915 20.898C168.064 20.7489 168.18 20.5701 168.255 20.3733C168.33 20.1765 168.363 19.966 168.352 19.7557C168.352 18.9385 167.899 18.53 166.992 18.53H166.158L166.149 21.3121Z" fill="#006898"/>
<path d="M138.136 43.8332L137.541 41.5625H133.606L132.994 43.8305H129.396L133.347 31.6791H137.71L141.712 43.8305L138.136 43.8332ZM136.862 38.8832L136.348 36.896C136.225 36.455 136.078 35.8843 135.906 35.1839C135.73 34.4807 135.627 33.9804 135.561 33.6775C135.511 33.9573 135.412 34.4205 135.266 35.0671C135.12 35.7138 134.795 36.9858 134.293 38.8832H136.862Z" fill="#006898"/>
<path d="M147.885 36.7486H153.113V43.2718C151.604 43.7703 150.023 44.0164 148.433 44C146.566 44 145.123 43.4589 144.103 42.3768C143.084 41.2947 142.575 39.7522 142.577 37.7492C142.577 35.7963 143.133 34.2759 144.245 33.1883C145.357 32.1006 146.921 31.5568 148.936 31.5568C149.661 31.553 150.385 31.6257 151.094 31.7736C151.701 31.8983 152.294 32.0846 152.863 32.3295L151.828 34.892C150.933 34.4554 149.949 34.2336 148.953 34.2445C148.536 34.2191 148.118 34.2898 147.732 34.4512C147.347 34.6126 147.003 34.8605 146.728 35.1755C146.206 35.7981 145.944 36.6857 145.944 37.8382C145.944 38.9907 146.181 39.8532 146.653 40.4257C146.899 40.7244 147.212 40.9607 147.567 41.1153C147.922 41.2699 148.308 41.3383 148.694 41.3151C149.145 41.3189 149.595 41.2714 150.035 41.1734V39.2779H147.874L147.885 36.7486Z" fill="#006898"/>
<path d="M162.765 43.8332H155.58V31.7319H162.765V34.3556H158.853V36.2595H162.468V38.8832H158.853V41.1678H162.765V43.8332Z" fill="#006898"/>
<path d="M176.419 43.8332H172.128L167.707 35.3062H167.632C167.737 36.6486 167.787 37.6714 167.787 38.3773V43.8332H164.89V31.7319H169.161L173.566 40.1422H173.61C173.532 38.9221 173.496 37.9438 173.496 37.2017V31.7319H176.419V43.8332Z" fill="#006898"/>
<path d="M184.428 34.2389C184.067 34.2276 183.71 34.3097 183.391 34.4772C183.072 34.6448 182.801 34.892 182.606 35.195C182.169 35.8342 181.951 36.7134 181.953 37.8326C181.953 40.1617 182.839 41.3263 184.611 41.3263C185.138 41.3273 185.663 41.2514 186.168 41.1011C186.682 40.9483 187.188 40.7693 187.684 40.5647V43.3302C186.6 43.7901 185.432 44.0183 184.255 44C182.429 44 181.028 43.4701 180.051 42.4102C179.074 41.3503 178.586 39.8189 178.588 37.8159C178.564 36.6742 178.806 35.5426 179.297 34.5113C179.741 33.5936 180.451 32.8312 181.335 32.3239C182.289 31.7957 183.366 31.5309 184.455 31.5568C185.754 31.5538 187.037 31.8456 188.207 32.4101L187.206 34.9838C186.77 34.7795 186.323 34.6031 185.865 34.4557C185.4 34.3088 184.915 34.2357 184.428 34.2389Z" fill="#006898"/>
<path d="M194.366 36.2178L196.455 31.7319H200L196.015 39.1055V43.8304H192.72V39.2056L188.735 31.7319H192.297L194.366 36.2178Z" fill="#006898"/>
</g>
<defs>
<clipPath id="clip0">
<rect width="200" height="44" fill="white"/>
</clipPath>
</defs>
</svg>

<svg xmlns="http://www.w3.org/2000/svg" xmlns:xlink="http://www.w3.org/1999/xlink" width="200" height="44" viewBox="0 0 200 44">
  <defs>
    <clipPath id="clip-path">
      <rect id="Прямоугольник_1" data-name="Прямоугольник 1" width="200" height="44" fill="#fff"/>
    </clipPath>
  </defs>
  <g id="WHA_logo_white" clip-path="url(#clip-path)">
    <path id="Контур_1" data-name="Контур 1" d="M0,0,11.187,43.953H25.369L30.35,18.41l5.2,25.542H61V26.743H74.75v17.21L90.779,0H74.756V14.731H61V0h-14.2L42.051,26.743,36.312,0H24.282l-5.2,26.743L13.993,0Z" fill="#fff"/>
    <path id="Контур_2" data-name="Контур 2" d="M93.493,29.017l4.449-15.478L102.6,29.017Z" fill="#fff"/>
    <path id="Контур_3" data-name="Контур 3" d="M89.141,43.953l1.947-5.781H105.27L107,43.953Z" fill="#fff"/>
    <path id="Контур_4" data-name="Контур 4" d="M121.148,43.953,105.512,0h15.636Z" fill="#006898"/>
    <path id="Контур_5" data-name="Контур 5" d="M105.512,0h15.636V43.956Z" fill="#e7a31d"/>
    <path id="Контур_6" data-name="Контур 6" d="M143.786,12.149h-3.868l-1.159-5.281c-.056-.222-.142-.659-.262-1.317s-.206-1.206-.261-1.645c-.045.359-.117.8-.214,1.337s-.2,1.02-.295,1.467-.5,2.257-1.2,5.431h-3.871l-3-12.1h3.157l1.312,6.076q.448,2.009.612,3.2.108-.834.386-2.3t.518-2.4L136.706.047h3.031l1.035,4.578q.267,1.1.539,2.54c.184.959.3,1.668.365,2.154q.108-.923.589-3.188L143.606.047h3.156Z" fill="#fff"/>
    <path id="Контур_7" data-name="Контур 7" d="M155.535,12.149h-7.2V.047h7.2V2.671H151.6v1.9h3.615V7.2H151.6V9.483h3.932Z" fill="#fff"/>
    <path id="Контур_8" data-name="Контур 8" d="M157.643.047h4.224a7.207,7.207,0,0,1,3.665.731,2.475,2.475,0,0,1,1.2,2.282,2.88,2.88,0,0,1-.52,1.737,2.337,2.337,0,0,1-1.391.928v.083a2.811,2.811,0,0,1,1.633.992,3,3,0,0,1,.506,1.8,3.087,3.087,0,0,1-1.24,2.6,5.4,5.4,0,0,1-3.373.948h-4.7Zm3.27,4.644h.987a1.772,1.772,0,0,0,1.088-.278,1,1,0,0,0,.386-.859q0-1.023-1.54-1.02h-.921Zm0,2.39V9.625h1.151c1.024,0,1.533-.431,1.533-1.292a1.111,1.111,0,0,0-.409-.926A1.88,1.88,0,0,0,162,7.082Z" fill="#fff"/>
    <path id="Контур_9" data-name="Контур 9" d="M141.075,27.991H137.8V23.058h-3.8v4.933h-3.287V15.89h3.287v4.486h3.8V15.89h3.279Z" fill="#fff"/>
    <path id="Контур_10" data-name="Контур 10" d="M150.891,27.991H143.7V15.89h7.188v2.624h-3.918v1.9h3.615v2.624h-3.615v2.285h3.918Z" fill="#fff"/>
    <path id="Контур_11" data-name="Контур 11" d="M153.013,27.991V15.89h3.27v9.45h4.664v2.64Z" fill="#fff"/>
    <path id="Контур_12" data-name="Контур 12" d="M171.664,19.739a4.056,4.056,0,0,1-1.2,3.132,4.845,4.845,0,0,1-3.4,1.112h-.918V28h-3.264V15.89h4.19a5.13,5.13,0,0,1,3.446,1A3.552,3.552,0,0,1,171.664,19.739Zm-5.515,1.573h.6a1.627,1.627,0,0,0,1.17-.414,1.5,1.5,0,0,0,.34-.525,1.513,1.513,0,0,0,.1-.618q0-1.226-1.36-1.226h-.834Z" fill="#fff"/>
    <path id="Контур_13" data-name="Контур 13" d="M138.136,43.833l-.6-2.271h-3.935l-.612,2.268h-3.6l3.951-12.151h4.363l4,12.151Zm-1.274-4.95-.514-1.987q-.185-.661-.442-1.712c-.176-.7-.279-1.2-.345-1.506q-.075.42-.295,1.39t-.973,3.816Z" fill="#fff"/>
    <path id="Контур_14" data-name="Контур 14" d="M147.885,36.749h5.228v6.523a14.444,14.444,0,0,1-4.68.728,5.662,5.662,0,0,1-4.33-1.623,6.484,6.484,0,0,1-1.526-4.628,6.088,6.088,0,0,1,1.668-4.561,6.427,6.427,0,0,1,4.691-1.632,10.308,10.308,0,0,1,2.158.217,9.115,9.115,0,0,1,1.769.556l-1.035,2.563a6.4,6.4,0,0,0-2.875-.647,2.732,2.732,0,0,0-2.225.931,4.035,4.035,0,0,0-.784,2.663,4,4,0,0,0,.709,2.588,2.454,2.454,0,0,0,2.041.889,5.939,5.939,0,0,0,1.341-.142v-1.9h-2.161Z" fill="#fff"/>
    <path id="Контур_15" data-name="Контур 15" d="M162.765,43.833H155.58v-12.1h7.185v2.624h-3.912v1.9h3.615v2.624h-3.615v2.285h3.912Z" fill="#fff"/>
    <path id="Контур_16" data-name="Контур 16" d="M176.419,43.833h-4.291l-4.421-8.527h-.075q.157,2.014.155,3.071v5.456h-2.9v-12.1h4.271l4.4,8.41h.044c-.078-1.22-.114-2.2-.114-2.941v-5.47h2.923Z" fill="#fff"/>
    <path id="Контур_17" data-name="Контур 17" d="M184.428,34.239a2.089,2.089,0,0,0-1.822.956,4.6,4.6,0,0,0-.653,2.638q0,3.494,2.658,3.494a5.425,5.425,0,0,0,1.557-.225,15.73,15.73,0,0,0,1.516-.536V43.33a8.444,8.444,0,0,1-3.429.67,5.432,5.432,0,0,1-4.2-1.59,6.534,6.534,0,0,1-1.463-4.594,7.328,7.328,0,0,1,.709-3.3,5.065,5.065,0,0,1,2.038-2.187,6.14,6.14,0,0,1,3.12-.767,8.589,8.589,0,0,1,3.752.853l-1,2.574a11.361,11.361,0,0,0-1.341-.528A4.669,4.669,0,0,0,184.428,34.239Z" fill="#fff"/>
    <path id="Контур_18" data-name="Контур 18" d="M194.366,36.218l2.089-4.486H200l-3.985,7.374V43.83H192.72V39.206l-3.985-7.474H192.3Z" fill="#fff"/>
  </g>
</svg>
